symbolic/24x24/panel/deadbeef-panel.svg

<svg xmlns="http://www.w3.org/2000/svg" width="24" height="24" version="1.1">
 <defs>
  <style id="current-color-scheme" type="text/css">
   .ColorScheme-Text { color:#323a41; } .ColorScheme-Highlight { color:#4285f4; } .ColorScheme-NeutralText { color:#ff9800; } .ColorScheme-PositiveText { color:#4caf50; } .ColorScheme-NegativeText { color:#f44336; }
  </style>
 </defs>
 <path style="fill:currentColor;fill-rule:evenodd" class="ColorScheme-Text" d="M 6,4 6,12 10.5,9.0000001 15,12 6,18 6,20 18,12 12,8.0000004 6,4 Z"/>
</svg>

<svg xmlns="http://www.w3.org/2000/svg" width="24" height="24"><defs><style id="current-color-scheme" type="text/css"></style></defs><path style="fill:currentColor;fill-rule:evenodd;color:#323a41" d="M6 4v8l4.5-3 4.5 3-9 6v2l12-8-6-4-6-4z"/></svg>
